spark-frontend/src/assets/icons/switch.svg

<svg width="24" height="24" viewBox="0 0 24 24" fill="none" xmlns="http://www.w3.org/2000/svg">
<path fill-rule="evenodd" clip-rule="evenodd" d="M14.8 6.66669H17.6V8.00002H19V18.6667H17.6V20H14.8V18.6667H13.4V8.00002H14.8V6.66669ZM14.8 17.3334H17.6V9.33335H14.8V17.3334Z" fill="#969696"/>
<path fill-rule="evenodd" clip-rule="evenodd" d="M6.4 4H9.2V5.33333H10.6V16H9.2V17.3333H6.4V16H5V5.33333H6.4V4ZM6.4 14.6667H9.2V6.66667H6.4V14.6667Z" fill="#969696"/>
</svg>

<svg xmlns="http://www.w3.org/2000/svg" width="24" height="24" fill="none"><path fill="#969696" fill-rule="evenodd" d="M14.8 6.667h2.8V8H19v10.667h-1.4V20h-2.8v-1.333h-1.4V8h1.4zm0 10.666h2.8v-8h-2.8zM6.4 4h2.8v1.333h1.4V16H9.2v1.333H6.4V16H5V5.333h1.4zm0 10.667h2.8v-8H6.4z" clip-rule="evenodd"/></svg>
